!!!COM: Beethoven, Ludwig van
!!!CDT: 1770///-1827///
!!!OTL: Piano Sonata no. 3 in C major
!!!ODT: 1794///-1795///
!!!ODE: Joseph Haydn
!!!OMD: Allegro assai
!!!OPS: 2
!!!ONM: 3
!!!OMV: 4
**kern	**kern	**dynam
*staff2	*staff1	*staff1/2
*Ipiano	*Ipiano	*Ipiano
*clefF4	*clefG2	*clefG2
*k[]	*k[]	*k[]
*C:	*C:	*C:
*M6/8	*M6/8	*M6/8
*MM180	*MM180	*MM180
8r	8g	p
=1	=1	=1
4CC 4C	8e' 8g' 8cc'L	.
.	8d' 8f' 8b'	.
8r	8e' 8g' 8cc'J	.
4r	8f' 8a' 8dd'L	.
.	8g' 8b' 8ee'	.
8r	8a' 8cc' 8ff'J	.
=2	=2	=2
4r	8b' 8dd' 8gg'L	.
.	8cc' 8ee' 8aa'	.
8r	8dd' 8ff' 8bb'J	.
4r	8ee' 8gg' 8ccc'L	.
.	8ff' 8aa' 8ddd'	.
*clefG2	*	*
8gg'	8ccc' 8eee'J	.
=3	=3	=3
4aa'	4ccc' 4fff'	.
8gg'	8ccc' 8eee'	.
4aa'	4ccc' 4fff'	.
8gg'	8ccc 8eee	.
=4	=4	=4
!!ONB: 4ff# does not have a staccato but probably should
4ff#	4ccc' 4ddd'	.
8r	8r	.
4r	4r	.
*clefF4	*	*
8r	8d	.
=5	=5	=5
4GGG 4GG	8B' 8d' 8g'L	.
.	8A' 8c' 8f#'	.
8r	8B' 8d' 8g'J	.
4r	8c' 8e' 8a'L	.
.	8d' 8fn' 8b'	.
8r	8e' 8g' 8cc'J	.
=6	=6	=6
4r	8f' 8a' 8dd'L	.
.	8g' 8b' 8ee'	.
8r	8a' 8cc' 8ff'J	.
4r	8b' 8dd' 8gg'L	.
.	8cc' 8ee' 8aa'	.
*clefG2	*	*
8g'	8dd' 8ff' 8bb'J	.
=7	=7	=7
4c' 4cc'	4ee' 4gg' 4ccc'	.
8g' 8b'	8ff' 8gg' 8ddd'	.
4c' 4cc'	4ee' 4gg' 4ccc'	.
8g' 8b'	8ff' 8gg' 8ddd'	.
=8	=8	=8
4c' 4cc'	4ee' 4gg' 4ccc'	.
8r	8r	.
!	!LO:TX:i:b:t=legato	!
4r	16aaLL	.
.	16gg	.
.	16ff	.
.	16ee	.
8r	16dd	.
.	16ccJJ	.
*clefF4	*	*
=9	=9	=9
*	*^	*
[2.G	16bLL	4.d 4.f	.
.	16cc	.	.
.	16b	.	.
.	16a	.	.
.	16b	.	.
.	16gJJ	.	.
.	16ccLL	4.c 4.e	.
.	16dd	.	.
.	16cc	.	.
.	16b	.	.
.	16cc	.	.
.	16gJJ	.	.
=10	=10	=10	=10
4G]	16ddLL	4B 4d	.
.	16ee	.	.
.	16dd	.	.
.	16cc#	.	.
8r	16dd	8ryy	.
.	16gJJ	.	.
4r	16ggLL	4.ryy	.
.	16ff	.	.
.	16ee	.	.
.	16dd	.	.
8r	16ccn	.	.
.	16bJJ	.	.
=11	=11	=11	=11
[2.G	16ccLL	4.e 4.g	.
.	16dd	.	.
.	16cc	.	.
.	16b	.	.
.	16cc	.	.
.	16gJJ	.	.
.	16ddLL	4.d 4.f	.
.	16ee	.	.
.	16dd	.	.
.	16cc#	.	.
.	16dd	.	.
.	16gJJ	.	.
=12	=12	=12	=12
4G]	16eeLL	4c 4e	.
.	16ff	.	.
.	16ee	.	.
.	16dd#	.	.
8r	16ee	8ryy	.
.	16ccJJ	.	.
4r	16aaLL	4.ryy	.
.	16gg	.	.
.	16ff	.	.
.	16ee	.	.
8r	16ddn	.	.
.	16ccJJ	.	.
=13	=13	=13	=13
[2.G	16ff#LL	(4.c 4.a	.
.	16gg	.	.
.	16ff#	.	.
.	16ee	.	.
.	16ff#	.	.
.	16ddJJ	.	.
.	16ggLL	4.B) 4.g	.
.	16aa	.	.
.	16gg	.	.
.	16ff#	.	.
.	16gg	.	.
.	16ddJJ	.	.
=14	=14	=14	=14
2.G]	16aaLL	2.c 2.f#	.
.	16bb	.	.
.	16aa	.	.
.	16gg#	.	.
.	16aa	.	.
.	16ddJJ	.	.
.	16dddLL	.	.
.	16ccc	.	.
.	16bb	.	.
.	16aa	.	.
.	16ggn	.	.
.	16ff#JJ	.	.
=15	=15	=15	=15
2.G	16ggLL	(4.B 4.g	.
.	16aa	.	.
.	16gg	.	.
.	16ff#	.	.
.	16gg	.	.
.	16ddJJ	.	.
.	16dddLL	4.c) 4.a	.
.	16eee	.	.
.	16ddd	.	.
.	16ccc#	.	.
.	16ddd	.	.
.	16ff#JJ	.	.
=16	=16	=16	=16
2.G	16ggLL	(4.B 4.g	.
.	16aa	.	.
.	16gg	.	.
.	16ff#	.	.
.	16gg	.	.
.	16ddJJ	.	.
.	16dddLL	4.c) 4.a	.
.	16eee	.	.
.	16ddd	.	.
.	16ccc#	.	.
.	16ddd	.	.
.	16ff#JJ	.	.
=17	=17	=17	=17
4G	16ggLL	4B 4g	.
.	16aa	.	.
.	16gg	.	.
.	16ff#	.	.
8r	16gg	8ryy	.
.	16aaJJ	.	.
4r	4.ryy	16bbLL	.
.	.	16ccc	.
.	.	16bb	.
.	.	16aa#	.
8r	.	16bb	.
.	.	16cccJJ	.
*	*v	*v	*
=18	=18	=18
2.r	16dddLL	.
.	16eee	.
.	16ddd	.
.	16ccc#	.
.	16ddd	.
.	16eeeJJ	.
.	16fffnLL	.
.	16ddd	.
.	16bb	.
.	16gg	.
.	16ffn	.
.	16ddJJ	.
=19	=19	=19
4C 4c	8e' 8g' 8cc'L	fp
.	8d' 8f' 8b'	.
8r	8e' 8g' 8cc'J	.
4r	8f' 8a' 8dd'L	.
.	8g' 8b' 8ee'	.
8r	8a' 8cc' 8ff'J	.
=20	=20	=20
4r	8b' 8dd' 8gg'L	.
.	8cc' 8ee' 8aa'	.
8r	8dd' 8ff' 8bb'J	.
4r	8ee' 8gg' 8ccc'L	.
.	8ff' 8aa' 8ddd'	.
*clefG2	*	*
8gg'	8ccc' 8eee'J	.
=21	=21	=21
4aa'	4ccc' 4fff'	.
8gg'	8bb' 8eee'	.
4aa'	4ccc' 4fff'	.
8gg'	8bb' 8eee'	.
=22	=22	=22
4ff#'	4aa' 4bb' 4ddd#'	.
8r	8r	.
4r	4r	.
8r	8bb	.
=23	=23	=23
4g' 4b'	4ee' 4eee'	.
8f#' 8a'	8dd#' 8ddd#'	.
4g' 4b'	4ee' 4eee'	.
8f#' 8a'	8ddn' 8dddn'	.
=24	=24	=24
4e' 4g'	4cc#' 4ccc#'	.
8r	8r	.
4r	4r	.
8r	8aaT	.
=25	=25	=25
4f#' 4a'	4dd' 4ddd'	f
8e' 8g'	8ccn' 8cccn'	.
4d' 4f#'	4b' 4bb'	.
8c' 8e'	8a' 8aa'	.
*clefF4	*	*
=26	=26	=26
4B' 4d'	4g' 4gg'	.
8A' 8c'	8f#' 8ff#'	.
4G' 4B'	4e'\ 4ee'\	.
8F#' 8A'	8d'\ 8dd'\	.
=27	=27	=27
4E' 4G'	4c' 4cc'	.
8D' 8F#'	8B' 8b'	.
4C' 4E'	4A' 4a'	.
8BB' 8D'	8G#' 8g#'	.
=28	=28	=28
4C/ 4E/	4A' 4a'	.
8BB' 8D'	8G#' 8g#'	.
4C/ 4E/	4A' 4a'	.
8C#'/ 8E'/	8Gn' 8gn'	.
=29	=29	=29
16DLL	4f#	.
16F# 16A	.	.
16d	.	.
16F# 16A	.	.
16d	8r	.
16F# 16AJJ	.	.
16dLL	4r	.
16F# 16A	.	.
16d	.	.
16F# 16A	.	.
16d	8r	.
16F# 16AJJ	.	.
=30	=30	=30
16DLL	[4.cc	p
16F# 16A	.	.
16d	.	.
16F# 16A	.	.
16d	.	.
16F# 16AJJ	.	.
16CLL	(8ccL]	.
16F# 16A	.	.
16d	8a	.
16F# 16A	.	.
16d	8f#J)	.
16F# 16AJJ	.	.
=31	=31	=31
16BBLL	(4dd	sf
16G 16B	.	.
16d	.	.
16G 16B	.	.
16d	16bLL	.
16G 16BJJ	16gJJ)	.
16dLL	(4dd	sf
16G 16B	.	.
16d	.	.
16G 16B	.	.
16d	16bLL	.
16G 16BJJ	16gJJ)	.
=32	=32	=32
16DLL	[4.cc	.
16F# 16A	.	.
16d	.	.
16F# 16A	.	.
16d	.	.
16F# 16AJJ	.	.
16CLL	(8ccL]	.
16F# 16A	.	.
16d	8a	.
16F# 16A	.	.
16d	8f#J)	.
16F# 16AJJ	.	.
=33	=33	=33
16BBLL	(4dd	sf
16G 16B	.	.
16d	.	.
16G 16B	.	.
16d	16bLL	.
16G 16BJJ	16gJJ)	.
16dLL	(4dd	sf
16G 16B	.	.
16d	.	.
16G 16B	.	.
16d	16bLL	.
16G 16BJJ	16gJJ)	.
=34	=34	=34
16DLL	[4.cc	.
16F# 16A	.	.
16d	.	.
16F# 16A	.	.
16d	.	.
16F# 16AJJ	.	.
16CLL	(8ccL]	.
16F# 16A	.	.
16d	8a	.
16F# 16A	.	.
16d	8f#J)	.
16F# 16AJJ	.	.
=35	=35	=35
4BB	8ddL	.
.	8b	.
8F#	8f#J	.
8GL	8gL	.
8B	8b	.
8D#J	8d#J	.
=36	=36	=36
8EL	8eL	.
8G	8g	.
8BBJ	8BJ	.
8CL	8cL	.
8E	8e	.
8GG#J	8G#J	.
=37	=37	=37
8AAL	8AL	.
8C	8c	.
8BBJ	8BJ	.
8AAL	8AL	.
8BB	8B	.
8CJ	8cJ	.
=38	=38	=38
*^	*	*
4.ryy	8DL	8dL	.
.	8C#	8c#	.
.	8DJ	8dJ	.
8DL	8DDL	4.ryy	.
8E	8EE	.	.
8F#J	8FF#J	.	.
*v	*v	*	*
=39	=39	=39
4GG	16r	.
.	16GLL	.
.	16B	.
.	16d	.
8r	16f#	.
.	16gJJ	.
4r	16bLL	.
.	16dd	.
.	16ff#	.
.	16gg	.
8r	16aa	.
.	16bbJJ	.
=40	=40	=40
16DLL	[4.ccc	.
16F# 16A	.	.
16d	.	.
16F# 16A	.	.
16d	.	.
16F# 16AJJ	.	.
16CLL	8cccL]	.
16F# 16A	.	.
16d	8aa	.
16F# 16A	.	.
16d	8ff#J	.
16F# 16AJJ	.	.
=41	=41	=41
16BBLL	(4ddd	sf
16G 16B	.	.
16d	.	.
16G 16B	.	.
16d	16bbLL	.
16G 16BJJ	16ggJJ)	.
16dLL	(4ddd	sf
16G 16B	.	.
16d	.	.
16G 16B	.	.
16d	16bbLL	.
16G 16BJJ	16ggJJ)	.
=42	=42	=42
16DLL	[4.ccc	.
16F# 16A	.	.
16d	.	.
16F# 16A	.	.
16d	.	.
16F# 16AJJ	.	.
16CLL	(8cccL]	.
16F# 16A	.	.
16d	8aa	.
16F# 16A	.	.
16d	8ff#J)	.
16F# 16AJJ	.	.
=43	=43	=43
16BB-LL	(4ddd	sf
16G 16B-	.	.
16d	.	.
16G 16B-	.	.
16d	16bb-LL	.
16G 16B-JJ	16ggJJ)	.
16dLL	(4ddd	sf
16G 16B-	.	.
16d	.	.
16G 16B-	.	.
16d	16bb-LL	.
16G 16B-JJ	16ggJJ)	.
=44	=44	=44
16DLL	[4.ccc	.
16F# 16A	.	.
16d	.	.
16F# 16A	.	.
16e	.	.
16F# 16AJJ	.	.
16CLL	8cccL]	.
16F# 16A	.	.
16d	8aa	.
16F# 16A	.	.
16d	8ff#J	.
16F# 16AJJ	.	.
=45	=45	=45
*	*^	*
4BB-	8dddL	4ryy	.
.	8bb-	.	.
8ryy	8ff#J	8f#	.
4.ryy	8ggL	8gL	.
.	8bb-	8b-	.
.	8ddJ	8dJ	.
=46	=46	=46	=46
2.ryy	8ee-L	8e-L	.
.	8gg	8g	.
.	8bnJ	8BnJ	.
.	8ccL	8cL<	.
.	8ee-	8e-	.
.	8gJ	8G<J	.
=47	=47	=47	=47
2.ryy	8a-L	4A-<	.
.	8ccc	.	.
.	8eenJ	8en	.
.	8ffnL	8fnL	.
.	8aa-	8a-	.
.	8cc#J	8c#J	.
=48	=48	=48	=48
4.ryy	8ddL	8dL<	.
.	8ff	8f	.
.	8anJ	8An>J	.
8B-L	8b-L	4.ryy	.
8d	8dd	.	.
8F#J	8f#J	.	.
=49	=49	=49	=49
2.ryy	8gL	4G<\	.
.	8bb-	.	.
.	8ddJ	8d	.
.	8ee-L	8e-L	.
.	8gg	8g	.
.	8bnJ	8BnJ	.
=50	=50	=50	=50
4.ryy	8ccL	8cL>	.
.	8ee-	8e-	.
.	8gJ	8G<J	.
8A-L	8a-L	4.ryy	.
8c	8cc	.	.
8EnJ	8enJ	.	.
*	*v	*v	*
=51	=51	=51
8FL	8fL	.
8A-	8a-	.
8C#J	8c#J	.
8DL<	8dL	.
8F	8f	.
8AA#J	8A#J	.
=52	=52	=52
*^	*	*
8BL	8BBL	2.ryy	.
8d	8D	.	.
8F#J	8FF#J	.	.
8GL	8GGL	.	.
8B	8BB	.	.
8DJ	8DDJ	.	.
=53	=53	=53	=53
8E-L	8EE-L	2.ryy	f
8G	8GG	.	.
8BBJ	8BBBJ	.	.
8CL	8CCL	.	.
8E-	8EE-	.	.
8GGJ	8GGGJ	.	.
=54	=54	=54	=54
8AA-L	8AAA-L	2.ryy	.
8C	8CC	.	.
8GGJ	8GGGJ	.	.
8AA-L	8AAA-L	.	.
8C	8CC	.	.
8FF#J	8FFF#J	.	.
=55	=55	=55	=55
8GGL	[2.GGG	4.ryy	p
8BB	.	.	.
8DJ	.	.	.
4.FFn	.	8G<L	.
.	.	8A<	.
.	.	8B<J	.
=56	=56	=56	=56
4.EE-	2.GGG]	8cL	.
.	.	8G<	.
.	.	8dJ	.
4.CC	.	8e-L	.
.	.	8G<	.
.	.	8f#J	.
=57	=57	=57	=57
[2.G	8GGGL	(4.g	sf
.	8BBB	.	.
.	8DDJ	.	.
.	8GGL	4.fn	.
.	8AA	.	.
.	8BBJ	.	.
=58	=58	=58	=58
2.G]	8CL	4.e-	.
.	8GG	.	.
.	8DJ	.	.
.	8E-L	4.c)	.
.	8GG	.	.
.	8F#J	.	.
=59	=59	=59	=59
(4.G	[2.GG	8r	sf
.	.	8BL	.
.	.	8dJ	.
4.Fn	.	8gL	.
.	.	8a	.
.	.	8bJ	.
=60	=60	=60	=60
4.E-	2.GG]	8ccL	.
.	.	8g	.
.	.	8ddJ	.
4.C)	.	8ee-L	.
.	.	8g	.
.	.	8ff#J	.
*v	*v	*	*
=61	=61	=61
*	*^	*
8GGL	(4.gg	[2.g	.
8BB	.	.	.
8DJ	.	.	.
8GL	4.ffn	.	.
8A	.	.	.
8BJ	.	.	.
=62	=62	=62	=62
8cL	4.ee-	2.g]	.
8G	.	.	.
8dJ	.	.	.
8e-L	4.cc)	.	.
8G	.	.	.
8f#J	.	.	.
=63	=63	=63	=63
4r	(8bL	4g	.
.	8f#)	.	.
8r	8g'J	8r	.
4r	8a'L	4.r	.
.	8b'	.	.
8r	8cc'J	.	.
*	*v	*v	*
=64	=64	=64
2.r	8dd'L	.
.	8ee'	.
.	8ff#'J	.
.	8gg'L	.
.	8aa'	.
.	8bb'J	.
=65	=65	=65
(8GGL	(8bL	.
8FF#)	8a)	.
8GG'J	8b'J	.
8AA'L	8cc'L	.
8BB	8dd'	.
8C'J	8ee'J	.
=66	=66	=66
8D'L	8ff#'L	.
8E'	8gg'	.
8F#'J	8aa'J	.
8G'L	8bb'L	.
8A'	8ccc'	.
8B'J	8ddd'J	.
=67	=67	=67
8G'L	8r	.
8F#'	8r	.
8G'J	8fff'	pp
8A'L	8eee'L	.
8B'	8ddd'	.
8c'J	8ccc'J	.
*clefG2	*	*
=68	=68	=68
8d'L	8bb'L	.
8e'	8aa'	.
8fn'J	8gg'J	.
8g'L	8ffn'L	.
8a'	8ee'	.
8b'J	8dd'J	.
*clefF4	*	*
=69	=69	=69
4C 4c	8e' 8g' 8cc'L	p
.	8d' 8f' 8b'	.
8r	8e' 8g' 8cc'J	.
4r	8f' 8a' 8dd'L	.
.	8g' 8b' 8ee'	.
8r	8a' 8cc' 8ff'J	.
=70	=70	=70
4r	8b' 8dd' 8gg'L	.
.	8cc' 8ee' 8aa'	.
8r	8dd' 8ff' 8bb'J	.
4r	8ee' 8gg' 8ccc'L	.
.	8ff' 8aa' 8ddd'	.
*clefG2	*	*
8gg	8ccc' 8eee'J	.
=71	=71	=71
4aa'	4ccc' 4fff'	.
8gg'	8ccc' 8eee'	.
4aa'	4ccc' 4fff'	.
8gg'	8ccc' 8eee'	.
=72	=72	=72
4ff#'	4ccc' 4ddd'	.
8r	8r	.
4r	4r	.
8r	8d	.
*clefF4	*	*
=73	=73	=73
4GGG 4GG	8B' 8d' 8g'L	.
.	8A' 8c' 8f#'	.
8r	8B' 8d' 8g'J	.
4r	8c' 8e' 8a'L	.
.	8d' 8fn' 8b'	.
8r	8e' 8g' 8cc'J	.
=74	=74	=74
4r	8f' 8a' 8dd'L	.
.	8g' 8b' 8ee'	.
8r	8a' 8cc' 8ff'J	.
4r	8b' 8dd' 8gg'L	.
.	8cc' 8ee' 8aa'	.
*clefG2	*	*
8g'	8dd' 8ff' 8bb'J	.
=75	=75	=75
4c' 4cc'	4ee' 4gg' 4ccc'	.
8g' 8b'	8ff' 8gg' 8ddd'	.
4c 4cc	4ee' 4gg' 4ccc'	.
8g' 8b'	8ff' 8gg' 8ddd'	.
=76	=76	=76
4c' 4cc'	4ee' 4gg' 4ccc'	.
8r	8r	.
4r	4r	.
*clefF4	*	*
!	!	!LO:DY:rj:b=2
8GG'	8r	f
=77	=77	=77
8CC' 8C'L	[2.g [2.ee [2.gg	f
8BBB' 8BB'	.	.
8CC' 8C'J	.	.
8DD' 8D'L	.	.
8EE' 8E'	.	.
8FF' 8F'J	.	.
=78	=78	=78
8GG' 8G'L	4.g_ 4.ee_ 4.gg_	.
8AA' 8A'	.	.
8BB' 8B'J	.	.
8C' 8c'L	8g] 8ee] 8ggL]	.
8D' 8d'	8g' 8dd' 8ff'	.
8E' 8e'J	8g' 8cc' 8ee'J	.
=79	=79	=79
4F' 4f'	4g' 4b' 4dd'	.
8E' 8e'	8g' 8cc' 8ee'	.
4F' 4f'	4g' 4b' 4dd'	.
8E' 8e'	8g' 8cc#' 8ee'	.
=80	=80	=80
4D' 4d'	4a' 4dd' 4ff'	.
8r	8r	.
4r	4r	.
!	!	!LO:DY:rj:b=2
8AA'	8r	ff
=81	=81	=81
8DD' 8D'L	[2.a [2.ff [2.aa	ff
8CC#' 8C#'	.	.
8DD' 8D'J	.	.
8EE' 8E'L	.	.
8FF' 8F'	.	.
8GG' 8G'J	.	.
=82	=82	=82
8AA' 8A'L	4.a_ 4.ff_ 4.aa_	.
8BB' 8B'	.	.
8C#' 8c#'J	.	.
8D' 8d'L	8a] 8ff] 8aaL]	.
8E' 8e'	8a' 8ee' 8gg'	.
8F' 8f'J	8a' 8dd' 8ff'J	.
=83	=83	=83
4G' 4g'	4a' 4cc#' 4ee'	p
8F' 8f'	8a' 8dd' 8ff'	.
4G' 4g'	4a' 4cc#' 4ee'	.
8F#' 8f#'	8a' 8dd#' 8ff#'	.
=84	=84	=84
4E' 4e'	4b' 4ee' 4gg'	.
8r	8r	.
4r	4r	.
!	!	!LO:DY:b=2:rj
8BB'	8r	f
=85	=85	=85
8EE' 8E'L	[2.b [2.gg [2.bb	f
8DD#' 8D#'	.	.
8EE' 8E'J	.	.
8FF#' 8F#'L	.	.
8GG' 8G'	.	.
8AA' 8A'J	.	.
=86	=86	=86
8BB' 8B'L	4.b_ 4.gg_ 4.bb_	.
8C#' 8c#'	.	.
8D#' 8d#'J	.	.
8E' 8e'L	8b] 8gg] 8bbL]	.
8F#' 8f#'	8b' 8ff#' 8aa'	.
8G' 8g'J	8b' 8ee' 8gg'J	.
=87	=87	=87
*	*^	*
2.r	8r	8AL	.
.	8dd# (8ff#L	8a 8cc	.
.	8ee 8ggJ)	8g 8bJ	.
.	8r	8F#L	.
.	8ff# (8aaL	8f# 8a	.
.	8gg 8bbJ)	8e 8gJ	.
=88	=88	=88	=88
2.r	8r	8D#L	.
.	8aa' 8ccc'L	8d# 8f#	.
.	8gg' 8bb'J	8e 8gJ	.
.	8ff#' 8aa'L	8f# 8aL	.
.	8ee' 8gg'	8g 8b	.
.	8dd# 8ff#J	8a 8ccJ	.
=89	=89	=89	=89
2.r	8r	8dnL	.
.	8gg# (8bbL	8dd 8ffn	.
.	8aa 8cccJ)	8cc 8eeJ	.
.	8r	8BL	.
.	8bb (8dddL	8b 8dd	.
.	8ccc 8eeeJ)	8a 8ccJ	.
=90	=90	=90	=90
2.r	8r	8G#L	.
.	8ddd' 8fff'L	8g#' 8b'	.
.	8ccc' 8eee'J	8a' 8cc'J	.
.	8bb' 8ddd'L	8b' 8dd'L	.
.	8aa' 8ccc'	8cc' 8ee'	.
.	8gg#' 8bb'J	8dd' 8ff'J	.
=91	=91	=91	=91
2.r	8r	8GnL	.
.	8cc# (8eeL	8g 8b-	.
.	8dd 8ffJ)	8f 8aJ	.
.	8r	8FL	.
.	8ee (8ggL	8e 8g	.
.	8ff 8aaJ)	8d 8fJ	.
=92	=92	=92	=92
2.r	8r	8C#L	.
.	8gg' 8bb-'L	8c#' 8e'	.
.	8ff' 8aa'J	8d' 8f'J	.
.	8ee' 8gg'L	8e' 8g'L	.
.	8dd' 8ff'	8f' 8a'	.
.	8cc#' 8ee'J	8g' 8b-'J	.
=93	=93	=93	=93
2.r	8r	8DL	.
.	8ff' 8aa'L	8d'	.
.	8ee' 8gg'J	8c#' 8e'J	.
.	8dd' 8ff'L	8d' 8f'L	.
.	8cc#' 8ee'	8e' 8g'	.
.	8dd'J	8f' 8a'J	.
*	*v	*v	*
=94	=94	=94
8GG#'L	8r	.
8G#' 8B'	8ddd' 8fff'L	.
8A' 8c'J	8ccc' 8eee'J	.
8B' 8d'L	8bb' 8ddd'L	.
8c' 8e'	8aa' 8ccc'	.
8d' 8f'J	8gg#' 8bb'J	.
=95	=95	=95
8AA'L	8r	.
8A'	8ccc' 8eee'L	.
8G#' 8B'J	8bb' 8ddd'J	.
8A' 8c'L	8aa' 8ccc'L	.
8B' 8d'	8gg#' 8bb'	.
8c' 8e'J	8aa'J	.
=96	=96	=96
4D'	8r	.
.	(8bL	.
8d'	8dddJ)	.
4E'	8r	.
.	(8g#L	.
8e'	8bbJ)	.
=97	=97	=97
4AA'	8r	.
.	(8aL	.
8A'	8aaJ)	.
4FF'	8r	.
.	(8fL	.
8F'	8ffJ)	.
=98	=98	=98
4DD'	8r	.
.	(8dL	.
8D'	8ddJ)	.
4BBB'	8r	.
.	(8BL	.
8BB'	8bJ)	.
=99	=99	=99
4GGG#'	8r	.
.	8G#L	.
8GG#'	8g#J	.
4AAA'	8r	.
.	(8AL	.
8AA'	8aJ)	.
=100	=100	=100
*^	*	*
8rc	4.DD#	2.ryy	.
(<8D#L>	.	.	.
8d#>J)	.	.	.
8rc	4.EE	.	.
(<8EL>	.	.	.
8e>J)	.	.	.
=101	=101	=101	=101
8rA	4.AAA	2.ryy	pp
(<8AAL	.	.	.
8AJ)	.	.	.
8rA	4.BBB-	.	.
(<8BB-L	.	.	.
8B-J)	.	.	.
=102	=102	=102	=102
8rA	4.BBBn	2.ryy	.
(<8BBnL	.	.	.
8BnJ)	.	.	.
8rA	4.CC	.	.
(<8CL	.	.	.
8cJ)	.	.	.
*v	*v	*	*
=103	=103	=103
!	!LO:TX:b:i:t=dolce	!
[2.FFF [2.FF	(4.A 4.c 4.f	.
.	4.c 4.f 4.a	.
=104	=104	=104
2.FFF] 2.FF]	4.f 4.a 4.cc	.
.	4.a/) 4.cc/ 4.ff/	.
=105	=105	=105
[2.CC [2.C	(4.g/ 4.cc/ 4.ee/	.
.	4.f 4.b 4.dd	.
=106	=106	=106
4.CC] 4.C]	4.e 4.g 4.cc	.
(4CC	4.c) 4.g 4.b-	.
16DDLL	.	.
16EEJJ)	.	.
=107	=107	=107
(<4.FFF 4.FF	(>4.c 4.f 4.a	.
4.GGG 4.GG	4.B- 4.e 4.g	.
=108	=108	=108
4.AAA 4.AA	4.c 4.f 4.A<	.
4.BBBn 4.BBn)	4.d 4.g 4.G<)	.
=109	=109	=109
(<4.CC 4.C	(>4.c 4.e 4.G<	.
4.GG 4.F)	4.d 4.Bn<	.
=110	=110	=110
(<8CCL	4E< 4G< 4c)	.
8EE	.	.
8GGJ	8r	.
8CL	4r	.
8D	.	.
8EJ)	8r	.
=111	=111	=111
4.FF\ (4.F\	8r	.
.	(8aaL	.
.	8cccJ)	.
4.AA 4.A	8r	.
.	(8ffL	.
.	8aaJ)	.
=112	=112	=112
4.C 4.c	8r	.
.	(8gg#L	.
.	8aaJ)	.
4.F 4.f)	8r	.
.	(8ccL	.
.	8aaJ)	.
=113	=113	=113
4.E (4.e	8r	.
.	(8aaL	.
.	8ggnJ)	.
4.D 4.d	8r	.
.	(8ffL	.
.	8bbJ)	.
=114	=114	=114
4.C 4.c	8r	.
.	(8eeL	.
.	8cccJ)	.
4.BB- 4.B-)	8r	.
.	(8eeL	.
.	8dddJ)	.
=115	=115	=115
4.AA (4.A	8r	.
.	(8dddL	.
.	8cccJ)	.
4.GG\ 4.G\	8r	.
.	(8bb-L	.
.	8eeeJ)	.
=116	=116	=116
4.FF\ 4.F\	8r	.
.	(8aaL	.
.	8fffJ)	.
4.BB- 4.B-)	8r	.
.	(8b-L	.
.	8dddJ)	.
=117	=117	=117
4.C (4.c	8r	.
.	(8aL	.
.	8cccJ)	.
4.CC 4.C)	8r	.
.	(8b-L	.
.	8eeJ)	.
=118	=118	=118
(8FFL	4a 4ff	.
8AA	.	.
8CJ	8r	.
8FL	4r	.
8G	.	.
8AJ)	8r	.
=119	=119	=119
*^	*	*
!	!LO:DY:rj	!	!
4r	[2.Cz	4r	.
[<8Gz [8B-z	.	8r	.
(<4G] 4B-]	.	(4b-/z>	.
8F) 8A	.	8a)	.
=120	=120	=120	=120
.	.	(aq8	.
4.E 4.G	2.C]	8g'L)	.
.	.	8f#'	.
.	.	8g'J	.
.	.	(b-q8	.
4.F 4.A	.	8a'L)	.
.	.	8g'	.
.	.	8a'J	.
=121	=121	=121	=121
!	!LO:DY:rj	!	!
4G 4B-	[2.Cz	4b-/	.
[8B-z [8dz	.	8r	.
(<4B-] 4d]	.	(4ddz>	.
8A) 8c	.	8cc)	.
=122	=122	=122	=122
4.G 4.B-	2.C]	8b-'L	.
.	.	8cc'	.
.	.	8b-'J	.
4.A 4F	.	8a'L<	.
.	.	8b-'	.
.	.	8a'J	.
=123	=123	=123	=123
!	!LO:DY:rj	!	!
4E 4G	[2.Cz	4g	.
[<8Gz [8B-z	.	8r	.
(<4G] 4B-]	.	(4b-/z>	.
8F) 8A	.	8a)	.
=124	=124	=124	=124
.	.	(aq8	.
4.E 4.G	2.C]	8g'L)	.
.	.	8f#'	.
.	.	8g'J	.
.	.	(bq8	.
4.F 4.A	.	8a'L)	.
.	.	8g'	.
.	.	8a'J	.
=125	=125	=125	=125
!!!ONB: Probably a tie on the C
4G 4B-	2.Cz	4b-	.
[<8B-z [8dz	.	8r	.
(<4B-] 4d]	.	(4ddz>	.
8A) 8c	.	8cc)	.
=126	=126	=126	=126
4.G 4.B-	2.C	8b-'L	.
.	.	8dd'	.
.	.	8cc'J	.
4.E 4.G	.	8b-'L	.
.	.	8a'	.
.	.	8g'J	.
*v	*v	*	*
=127	=127	=127
8r	4.A 4.c (4.f	p
(8FL	.	.
8AJ)	.	.
8r	4.c 4.f 4.a	.
(8CL	.	.
8FJ)	.	.
=128	=128	=128
8r	4.f 4.a 4.cc	.
(8AAL	.	.
8CJ)	.	.
8r	4.a 4.cc 4.ff)	.
(8FFL	.	.
8AAJ)	.	.
=129	=129	=129
8r	(4.g/ 4.cc/ 4.ee/	.
(8BBnL	.	.
8CJ)	.	.
8r	4.f 4.g 4.dd	.
(8A#L	.	.
8BnJ)	.	.
=130	=130	=130
8r	4.e 4.g 4.cc	.
(8BL	.	.
8cJ)	.	.
8r	4.c) 4.g 4.b-	.
(8D#L	.	.
8EJ)	.	.
=131	=131	=131
8r	(4.c 4.f 4.a	.
(8EL	.	.
8FJ)	.	.
8r	4.B- 4.e 4.g	.
(8FF#L	.	.
8GGJ)	.	.
=132	=132	=132
8r	4.A 4.c 4.f	.
(8GG#L	.	.
8AAJ)	.	.
8r	4.G) 4.d 4.g	.
(8AAL	.	.
8BB-J)	.	.
=133	=133	=133
8rGG	(>4.c 4.F< 4.A<	.
(>8BBnL	.	.
8CJ)	.	.
8rGG	4.c 4.e 4.G< 4.B-<	.
(8BBBnL>	.	.
8CCJ)	.	.
=134	=134	=134
(8FFL	4A 4c 4f)	.
8AA	.	.
8CJ	8r	.
8FL	4r	.
8G	.	.
8AJ)	8r	.
=135	=135	=135
*^	*	*
!	!LO:DY:rj	!	!
4ryy	[2.Cz	4r	.
[<8Gz [8B-z	.	8r	.
(<4G] 4B-]	.	(4b-z>/	.
8F) 8A	.	8a)	.
=136	=136	=136	=136
.	.	(aq8	.
4.E 4.G	2.C]	8g'L)	.
.	.	8f#'	.
.	.	8g'J	.
.	.	(bq8	.
4.F 4.A	.	8a'L)	.
.	.	8g'	.
.	.	8a'J	.
=137	=137	=137	=137
!	!LO:DY:rj	!	!
4G 4B-	[2.Cz	4b-	.
[<8B-z [8dz	.	8r	.
(<4B-] 4d]	.	(4ddz>	.
8A) 8c	.	8cc)	.
=138	=138	=138	=138
4.G 4.B-	2.C]	8b-'L>	.
.	.	8cc'	.
.	.	8b-'J	.
4.F 4.A	.	8a'L	.
.	.	8b-'	.
.	.	8a'J	.
=139	=139	=139	=139
!	!LO:DY:rj	!	!
4E 4G	[2.Cz	4g	.
[<8Gz [8B-z	.	8r	.
(<4G] 4B-]	.	(4b-/z>	.
8F 8A)	.	8a)	.
=140	=140	=140	=140
.	.	(aq8	.
4.E 4.G	2.C]	8g'L)	.
.	.	8f#'	.
.	.	8g'J	.
.	.	(bq8	.
4.F 4.A	.	8a'L)	.
.	.	8g'	.
.	.	8a'J	.
=141	=141	=141	=141
!	!LO:DY:rj	!	!
4G 4B-	[2.Cz	4b-	.
[<8B-z [8dz	.	8r	.
(<4B-] 4d]	.	(4ddz>	.
8A) 8c	.	8cc)	.
=142	=142	=142	=142
4.G 4.B-	2.C]	8b-'L	.
.	.	8dd'	.
.	.	8cc'J	.
4.E 4.G	.	8b-'L<	.
.	.	8a'	.
.	.	8g'J	.
*v	*v	*	*
=143	=143	=143
8r	4.A 4.c (4.f	p
(8FL	.	.
8AJ)	.	.
8r	4.c 4.f 4.a	.
(8CL	.	.
8FJ)	.	.
=144	=144	=144
8r	4.f 4.a 4.cc	.
(8AAL	.	.
8CJ)	.	.
8r	4.a 4.cc 4.ff	.
(8FFL	.	.
8AAJ)	.	.
=145	=145	=145
8r	4.g 4.cc 4.ee	.
(8BBnL	.	.
8CJ)	.	.
8r	4.f 4.g 4.dd	.
(8A#L	.	.
8BJ)	.	.
=146	=146	=146
8r	4.e 4.g 4.cc	.
(8BL	.	.
8cJ)	.	.
8r	4.c 4.g 4.b-)	.
(8D#L	.	.
8EJ)	.	.
=147	=147	=147
4.FF\ (4.F\	8c 8f 8a-	.
.	(8aa-L	.
.	8cccJ)	.
4.AA- 4.A-	8r	.
.	(8ffL	.
.	8aa-J)	.
=148	=148	=148
4.C 4.c	8r	.
.	(8ccL	.
.	8ffJ)	.
4.F 4.f)	8r	.
.	(8a-L	.
.	8aa-J)	.
=149	=149	=149
4.E- (4.e-	8r	.
.	(8aa-L	.
.	8ggJ)	.
4.D- 4.d-	8r	.
.	(8gL	.
.	8ffJ)	.
=150	=150	=150
4.C 4.c	8r	.
.	(8ffL	.
.	8ee-J)	.
4.BB- 4.B-)	8r	.
.	(8dd-L	.
.	8ddd-J)	.
=151	=151	=151
(<4.AA- 4.A-	8r	.
.	(8cccL	.
.	8eee-J)	.
4.C 4.c	8r	.
.	(8aa-L	.
.	8cccJ)	.
=152	=152	=152
4.E- 4.e->	8rccc	.
.	(8ee-L	.
.	8aa-J)	.
4.A-) 4.a->	8rccc	.
.	(8ccL	.
.	8cccJ)	.
=153	=153	=153
(<4.G 4.g>	8rccc	.
.	(8cccL	.
.	8bbnJ)	.
4.F 4.f>	8rccc	.
.	(8bnL	.
.	8aa-J)	.
=154	=154	=154
4.E- 4.e->	8rccc	.
.	(8aa-L	.
.	8ggJ)	.
4.D) 4.d>	8rccc	.
.	(8ffL	.
.	8fffJ)	.
=155	=155	=155
8r	4.g 4.cc (4.ee-	.
(8BL	.	.
8cJ)	.	.
8r	4.cc 4.ee- 4.gg	.
(8BL	.	.
8cJ)	.	.
=156	=156	=156
8r	4.ee- 4.gg 4.ccc)	.
(8BL	.	.
8cJ)	.	.
8r	4.cc 4.aa (4.ccc	.
(8F#L	.	.
8e-J)	.	.
=157	=157	=157
8r	4.b 4.gg 4.bb	.
(8e-L	.	.
8dJ)	.	.
8r	4.a 4.ff# 4.aa	.
(8DL	.	.
8cJ)	.	.
=158	=158	=158
8r	4.g 4.gg)	.
(8cL	.	.
8BJ)	.	.
8r	4.b- 4.gg (4.bb-	.
(8EnL	.	.
8d-J)	.	.
=159	=159	=159
8r	4.a- 4.ff 4.aa-	.
(8d-L	.	.
8cJ)	.	.
8r	4.g 4.ee 4.gg	.
(8CL	.	.
8B-J)	.	.
=160	=160	=160
8r	4.f 4.ff)	.
(8B-L	.	.
8A-J)	.	.
8r	4.g 4.dd (>4.gg	.
(8BBnL	.	.
8GJ)	.	.
=161	=161	=161
8r	4.g 4.cc 4.ee-	.
(8CL	.	.
8GJ)	.	.
8r	4.f 4.b 4.dd	.
(8DL	.	.
8GJ)	.	.
=162	=162	=162
8r	4.e- 4.g 4.cc)	.
(8E-L>	.	.
8CJ)	.	.
8r	(>4.d 4.a 4.dd	.
(8EE#L	.	.
8FF#J)	.	.
=163	=163	=163
8r	4.d 4.g 4.b	.
(8FF#L	.	.
8GGJ)	.	.
8r	4.c 4.f# 4.a	.
(8GGGL	.	.
8GGJ)	.	.
=164	=164	=164
8rCC	4.B 4.d 4.g	.
(8GGGL<	.	.
8GGJ)	.	.
8rCC	4.F#< 4.c 4.e-	.
(8GGGL<	.	.
8GGJ)	.	.
=165	=165	=165
8rCC	4.d 4.G< 4.B<	.
(8GGGL	.	.
8GGJ)	.	.
!	!	!LO:DY:rj
8rCC	4.c 4.E-< 4.F#<	pp
(8GGGL	.	.
8GGJ)	.	.
=166	=166	=166
*^	*	*
4.D 4.G 4.B	8rCC	2.ryy	.
.	(>8GGGL	.	.
.	8GGJ)	.	.
4.C 4.F# 4.A	8rCC	.	.
.	(>8GGGL	.	.
.	8GGJ)	.	.
=167	=167	=167	=167DY:b=2
4ryy	4GGG	4BB< 4G<)	.
!	!	!	!LO:DY:b=2
[<8GG	8ryy	8r	sfp
4.GG_<	4.ryy	(4dz>	.
.	.	8c)	.
*v	*v	*	*
=168	=168	=168
.	(cq8	.
2.GG]	8B'L)	.
.	8A'	.
.	8B'J	.
.	dq8	.
.	8c'L	.
.	8B'	.
.	8c'J	.
=169	=169	=169
4GGG	4d	.
!	!	!LO:DY:b=2
[8GG	8r	sfp
4.GG_	(4dz 4fz	.
.	8c) 8e	.
=170	=170	=170
.	(cq8	.
2.GG]	8B') 8d'L	.
.	8A' 8c'	.
.	8B' 8d'J	.
.	dq8	.
.	8c' 8e'L	.
.	8B' 8d'	.
.	8c' 8e'J	.
=171	=171	=171
*^	*	*
4.ryy	4GGG	4d 4f	.
!	!	!	!LO:DY:b=2
.	[<8GG\	8r	sfp
8r	4.GG_	(4fz 4az	.
8BBL	.	.	.
8CJ	.	8e) 8g	.
=172	=172	=172	=172
4.D	2.GG_	8d' 8f'L	.
.	.	8e' 8g'	.
.	.	8d' 8f'J	.
4.E	.	8c' 8e'L	.
.	.	8d' 8f'	.
.	.	8c' 8e'J	.
=173	=173	=173	=173
4F	4GG]	4B 4d	.
!	!	!	!LO:DY:b=2
8r	[8GG	8r	sfp
8r	4.GG_	(4fz 4az	.
8BBL	.	.	.
8CJ	.	8e) 8g	.
=174	=174	=174	=174
4.D	2.GG_	8d' 8f'L	.
.	.	8e' 8g'	.
.	.	8d' 8f'J	.
4.E	.	8c' 8e'L	.
.	.	8d' 8f'	.
.	.	8c' 8e'J	.
=175	=175	=175	=175
4F	4GG]	8B' 8d'L	.
.	.	(8c#	.
8r	8r	8dJ)	.
4r	4r	8e'L	.
.	.	8f'	.
8r	8r	8g'J	.
*v	*v	*	*
=176	=176	=176
2.r	8a'L	.
.	8b'	.
.	8cc'J	.
.	8dd'L	.
.	8ee-'	.
.	8een'J	.
=177	=177	=177
2.r	8ff'L	.
.	(8cc#	.
.	8ddJ)	.
.	8ee'L	.
.	8ff'	.
.	8gg'J	.
=178	=178	=178
2.r	8aa'L	.
.	8bb'	.
.	8ccc'J	.
.	8ddd'L	.
.	8eee-'	.
.	8eeen'J	.
=179	=179	=179
8GGL	4fff'	pp
8FF#'	.	.
8GG'J	8r	.
8AA'L	4r	.
8BB'	.	.
8C'J	8r	.
=180	=180	=180
8D'L	2.r	.
8E'	.	.
8Fn'J	.	.
8G'L	.	.
8A'	.	.
8B'J	.	.
=181	=181	=181
4c'	8e' 8g' 8cc'L	p
.	8d' 8f' 8b'	.
8r	8e' 8g' 8cc'J	.
4r	8f' 8a' 8dd'L	.
.	8g' 8b' 8ee'	.
8r	8a' 8cc' 8ff'J	.
=182	=182	=182
4r	8b' 8dd' 8gg'L	.
.	8cc' 8ee' 8aa'	.
8r	8dd' 8ff' 8bb'J	.
4r	8ee' 8gg' 8ccc'L	.
.	8ff' 8aa' 8ddd'	.
*clefG2	*	*
8gg'	8ccc' 8eee'J	.
=183	=183	=183
4aa'	4ccc 4fff	.
8gg'	8ccc' 8eee'	.
4aa'	4ccc' 4fff'	.
8gg'	8ccc' 8eee'	.
=184	=184	=184
4ff#'	4ccc' 4ddd'	.
8r	8r	.
4r	4r	.
8r	8d	.
*clefF4	*	*
=185	=185	=185
4GGG 4GG	8B' 8d' 8g'L	.
.	8A' 8c' 8f#'	.
8r	8B' 8d' 8g'J	.
4r	8c' 8e' 8a'L	.
.	8d' 8fn' 8b'	.
8r	8e' 8g' 8cc'J	.
=186	=186	=186
4r	8f' 8a' 8dd'L	.
.	8g' 8b' 8ee'	.
8r	8a' 8cc' 8ff'J	.
4r	8b' 8dd' 8gg'L	.
.	8cc' 8ee' 8aa'	.
*clefG2	*	*
8g'	8dd 8ff 8bbJ	.
=187	=187	=187
4c' 4cc'	4ee' 4gg' 4ccc'	.
8g' 8b'	8ff' 8gg' 8ddd'	.
4c' 4cc'	4ee' 4gg' 4ccc'	.
8g' 8b'	8ff' 8gg' 8ddd'	.
=188	=188	=188
4c' 4cc'	4ee' 4gg' 4ccc'	.
8r	8r	.
4r	4r	.
*clefF4	*	*
!	!	!LO:DY:b=2:rj
8GG	8r	f
=189	=189	=189
8CC' 8C'L	[2.g [2.ee [2.gg	f
8BBB' 8BB'	.	.
8CC' 8C'J	.	.
8DD' 8D'L	.	.
8EE' 8E'	.	.
8FF' 8F'J	.	.
=190	=190	=190
8GG' 8G'L	4.g_ 4.ee_ 4.gg_	.
8AA' 8A'	.	.
8BB' 8B'J	.	.
8C' 8c'L	8g] 8ee] 8ggL]	.
8D' 8d'	8g' 8dd' 8ff'	.
8E' 8e'J	8g' 8cc' 8ee'J	.
=191	=191	=191
4F' 4f'	4g' 4b' 4dd'	.
8E' 8e'	8g' 8cc' 8ee'	.
4F' 4f'	4g' 4b' 4dd'	.
8E' 8e'	8g' 8cc' 8ee'	.
=192	=192	=192
4F' 4f'	4g' 4b' 4dd'	.
8r	8r	.
4r	4r	.
8r	8g	.
=193	=193	=193
8GGG' 8GG'L	[2.g [2.dd [2.ff	.
8FFF#' 8FF#'	.	.
8GGG' 8GG'J	.	.
8AAA' 8AA'L	.	.
8BBB' 8BB'	.	.
8CC' 8C'J	.	.
=194	=194	=194
8DD' 8D'L	4.g_ 4.dd_ 4.ff_	.
8EE' 8E'	.	.
8FF' 8F'J	.	.
8GG' 8G'L>	8g] 8dd] 8ffL>]	.
8AA' 8A'	8g'> 8cc'> 8ee'>	.
8BB' 8B'J	8f'> 8g'> 8dd'>J	.
=195	=195	=195
4C' 4c'	4e'> 4g'> 4cc'>	.
8G' 8B'	8f'> 8g'> 8dd'>	.
4C' 4c'	4e'> 4g'> 4cc'>	.
8G' 8B'	8f'> 8g'> 8dd'>	.
=196	=196	=196
4C' 4c'	4e'> 4g'> 4cc'>	.
8r	8r	.
4r	(16aaLL	.
.	16gg	.
.	16ff	.
.	16ee	.
8r	16dd	.
.	16ccJJ)	.
=197	=197	=197
*	*^	*
[2.G	(16bLL	4.d 4.f	.
.	16cc	.	.
.	16b	.	.
.	16a	.	.
.	16b	.	.
.	16gJJ)	.	.
.	(16ccLL	4.c 4.e	.
.	16dd	.	.
.	16cc	.	.
.	16b	.	.
.	16cc	.	.
.	16gJJ)	.	.
=198	=198	=198	=198
4G]	(16ddLL	4B 4d	.
.	16ee	.	.
.	16dd	.	.
.	16cc#	.	.
8r	16dd	8ryy	.
.	16gJJ)	.	.
4r	(16ggLL	4.ryy	.
.	16ff	.	.
.	16ee	.	.
.	16dd	.	.
8r	16ccn	.	.
.	16bJJ)	.	.
=199	=199	=199	=199
[2.G	(16ccLL	4.e 4.g	.
.	16dd	.	.
.	16cc	.	.
.	16b	.	.
.	16cc	.	.
.	16gJJ)	.	.
.	(16ddLL	4.d 4.f	.
.	16ee	.	.
.	16dd	.	.
.	16cc#	.	.
.	16dd	.	.
.	16gJJ)	.	.
=200	=200	=200	=200
4G]	(16eeLL	4c 4e	.
.	16ff	.	.
.	16ee	.	.
.	16dd#	.	.
8r	16ee	8ryy	.
.	16ccJJ)	.	.
4r	(16aaLL	4.ryy	.
.	16gg	.	.
.	16ff	.	.
.	16ee	.	.
8r	16ddn	.	.
.	16ccJJ)	.	.
=201	=201	=201	=201
[2.G	(16ff#LL	(4.c 4.a	.
.	16gg	.	.
.	16ff#	.	.
.	16ee	.	.
.	16ff#	.	.
.	16ddJJ)	.	.
.	(16ggLL	4.B) 4.g	.
.	16aa	.	.
.	16gg	.	.
.	16ff#	.	.
.	16gg	.	.
.	16ddJJ)	.	.
=202	=202	=202	=202
2.G]	(16aaLL	2.c 2.f#	.
.	16bb	.	.
.	16aa	.	.
.	16gg#	.	.
.	16aa	.	.
.	16ddJJ)	.	.
.	(16dddLL	.	.
.	16ccc	.	.
.	16bb	.	.
.	16aa	.	.
.	16ggn	.	.
.	16ff#JJ)	.	.
=203	=203	=203	=203
2.G	(16ggLL	(4.B 4.g	.
.	16aa	.	.
.	16gg	.	.
.	16ff#	.	.
.	16gg	.	.
.	16ddJJ)	.	.
.	(16dddLL	4.c) 4.a	.
.	16eee	.	.
.	16ddd	.	.
.	16ccc#	.	.
.	16ddd	.	.
.	16ff#JJ)	.	.
=204	=204	=204	=204
2.G	(16ggLL	(4.B 4.g	.
.	16aa	.	.
.	16gg	.	.
.	16ff#	.	.
.	16gg	.	.
.	16ddJJ)	.	.
.	(16dddLL	4.c) 4.a	.
.	16eee	.	.
.	16ddd	.	.
.	16ccc#	.	.
.	16ddd	.	.
.	16ff#JJ)	.	.
=205	=205	=205	=205
4G	(16ggLL	4B 4g	.
.	16aa	.	.
.	16gg	.	.
.	16ff#	.	.
8r	16gg	8ryy	.
.	16aaJJ)	.	.
4r	4.ryy	(16bbLL	.
.	.	16ccc	.
.	.	16bb	.
.	.	16aa#	.
8r	.	16bb	.
.	.	16cccJJ)	.
*	*v	*v	*
=206	=206	=206
2.r	(16dddLL	.
.	16eee	.
.	16ddd	.
.	16ccc#	.
.	16ddd	.
.	16eeeJJ	.
.	16fffnLL	.
.	16ddd	.
.	16bb	.
.	16gg	.
.	16ffn	.
.	16ddJJ)	.
=207	=207	=207
4CC 4C	8e' 8g' 8cc'L	fp
.	8d' 8f' 8b'	.
8r	8e' 8g' 8cc'J	.
4r	8f' 8a' 8dd'L	.
.	8g' 8b' 8ee'	.
8r	8a' 8cc' 8ff'J	.
=208	=208	=208
4r	8b' 8dd' 8gg'L	.
.	8cc' 8ee' 8aa'	.
8r	8dd' 8ff' 8bb'J	.
4r	8ee' 8gg' 8ccc'L	.
.	8ff' 8aa' 8ddd'	.
*clefG2	*	*
8gg'	8ccc' 8eee'J	.
=209	=209	=209
4aa'	4ccc' 4fff'	.
8gg'	8ccc' 8eee'	.
4aa'	4ccc' 4fff'	.
8gg'	8ccc' 8eee'	.
=210	=210	=210
4ff#'	4ccc' 4ddd'	.
8r	8r	.
4r	4r	.
8r	8r	.
=211	=211	=211
4g' 4cc'	4ee' 4eee'	.
8f#' 8cc'	8dd#' 8ddd#'	.
4g' 4cc'	4ee' 4eee'	.
8fn' 8cc'	8ddn' 8dddn'	.
=212	=212	=212
4e' 4g'	4cc' 4ccc'	.
8r	8r	.
4r	4r	.
8r	8cccT	.
=213	=213	=213
4a'/ 4cc'/	4ff' 4fff'	ff
8g' 8b'	8ee' 8eee'	.
4f' 4a'	4dd' 4ddd'	.
8e' 8g'	8cc' 8ccc'	.
=214	=214	=214
4d' 4f'	4b' 4bb'	.
8c' 8e'	8a' 8aa'	.
4B' 4d'	4g' 4gg'	.
8A' 8c'	8f' 8ff'	.
*clefF4	*	*
=215	=215	=215
4G' 4B'	4e' 4ee'	.
8F' 8A'	8d' 8dd'	.
4E' 4G'	4c' 4cc'	.
8D' 8F'	8B' 8b'	.
=216	=216	=216
4C'< 4E'<	4a'> 4A<'>	.
8BB'< 8D'<	8g#'> 8G#<'>	.
4C'< 4E'<	4a'> 4A<'>	.
8AA'< 8C'<	8f#'> 8F#<'>	.
=217	=217	=217
16GGLL	4gn 4Gn<	.
16BB 16D	.	.
16G	.	.
16BB 16D	.	.
16G	8r	.
16BB 16DJJ	.	.
16GLL	4r	.
16BB 16D	.	.
16G	.	.
16BB 16D	.	.
16G	8r	.
16BB 16DJJ	.	.
=218	=218	=218
16GGLL<	[4.ff	p
16BB 16D	.	.
16G	.	.
16BB 16D	.	.
16G	.	.
16BB 16DJJ	.	.
16FFLL<	(8ffL]	.
16BB 16D	.	.
16G	8dd	.
16BB 16D	.	.
16G	8bJ)	.
16BB 16DJJ	.	.
=219	=219	=219
16EELL	(4ggz	.
16C 16E	.	.
16G	.	.
16C 16E	.	.
16G	16eeLL	.
16C 16EJJ	16ccJJ)	.
16GLL	(4ggz	.
16C 16E	.	.
16G	.	.
16C 16E	.	.
16G	16eeLL	.
16C 16EJJ	16ccJJ)	.
=220	=220	=220
16GGLL<	[4.ff	p
16BB 16D	.	.
16G	.	.
16BB 16D	.	.
16G	.	.
16BB 16DJJ	.	.
16FFLL<	(8ffL]	.
16BB 16D	.	.
16G	8dd	.
16BB 16D	.	.
16G	8bJ)	.
16BB 16DJJ	.	.
=221	=221	=221
16EELL	(4ggz	.
16C 16E	.	.
16G	.	.
16C 16E	.	.
16G	16eeLL	.
16C 16EJJ	16ccJJ)	.
16GLL	(4ggz	.
16C 16E	.	.
16G	.	.
16C 16E	.	.
16G	16eeLL	.
16C 16EJJ	16ccJJ)	.
=222	=222	=222
16GGLL<	[4.ff	p
16BB 16D	.	.
16G	.	.
16BB 16D	.	.
16G	.	.
16BB 16DJJ	.	.
16FFLL<	(8ffL]	.
16BB 16D	.	.
16G	8dd	.
16BB 16D	.	.
16G	8bJ)	.
16BB 16DJJ	.	.
=223	=223	=223
4EE	8ggL	.
.	8ee	.
8B	8bJ	.
8cL	8ccL	.
8e	8ee	.
8G#J	8g#J	.
=224	=224	=224
8AL	8aL	.
8c	8cc	.
8EJ	8eJ	.
8FL	8fL	.
8A	8a	.
8C#J	8c#J	.
=225	=225	=225
8DL	8dL	.
8F	8f	.
8EJ	8eJ	.
8DL	8dL	.
8E	8e	.
8FJ	8fJ	.
=226	=226	=226
8GL	8gL	.
8F#	8f#	.
8GJ	8gJ	.
8GGL	8GL	.
8AA	8A	.
8BBJ	8BJ	.
=227	=227	=227
4C	8cL	.
.	8e	.
8r	8gJ	.
4r	8ccL	.
.	8dd	.
8r	8eeJ	.
=228	=228	=228
16GGLL<	[4.ff	p
16BB 16D	.	.
16G	.	.
16BB 16D	.	.
16G	.	.
16BB 16DJJ	.	.
16FFLL<	(8ffL]	.
16BB 16D	.	.
16G	8dd	.
16BB 16D	.	.
16G	8bJ)	.
16BB 16DJJ	.	.
=229	=229	=229
16EE-LL	(4ggz	.
16C 16E-	.	.
16G	.	.
16C 16E-	.	.
16G	16ee-LL	.
16C 16E-JJ	16ccJJ)	.
16GLL	(4ggz	.
16C 16E-	.	.
16G	.	.
16C 16E-	.	.
16G	16ee-LL	.
16C 16E-JJ	16ccJJ)	.
=230	=230	=230
16GGLL<	[4.ff	p
16BB 16D	.	.
16G	.	.
16BB 16D	.	.
16G	.	.
16BB 16DJJ	.	.
16FFLL<	(8ffL]	.
16BB 16D	.	.
16G	8dd	.
16BB 16D	.	.
16G	8bJ)	.
16BB 16DJJ	.	.
=231	=231	=231
16EE-LL	(4ggz	.
16C 16E-	.	.
16G	.	.
16C 16E-	.	.
16G	16ee-LL	.
16C 16E-JJ	16ccJJ)	.
16GLL	(4ggz	.
16C 16E-	.	.
16G	.	.
16C 16E-	.	.
16G	16ee-LL	.
16C 16E-JJ	16ccJJ)	.
=232	=232	=232
16BB-LL	[4.aa-	p
16D 16F	.	.
16B-	.	.
16D 16F	.	.
16B-	.	.
16D 16FJJ	.	.
16AA-LL	(8aa-L]	.
16D 16F	.	.
16B-	8ff	.
16D 16F	.	.
16B-	8ddJ)	.
16D 16FJJ	.	.
=233	=233	=233
16GGLL	(4bb-z	.
16E- 16G	.	.
16B-	.	.
16E- 16G	.	.
16B-	16ggLL	.
16E- 16GJJ	16ee-JJ)	.
16B-LL	(4bb-z	.
16E- 16G	.	.
16B-	.	.
16E- 16G	.	.
16B-	16ggLL	.
16E- 16GJJ	16ee-JJ)	.
=234	=234	=234
16BB-LL	[4.aa-	p
16D 16F	.	.
16B-	.	.
16D 16F	.	.
16B-	.	.
16D 16FJJ	.	.
16AA-LL	(8aa-L]	.
16D 16F	.	.
16B-	8ff	.
16D 16F	.	.
16B-	8ddJ)	.
16D 16FJJ	.	.
=235	=235	=235
*	*^	*
4GG	8bb-L	4ryy	.
.	8gg	.	.
8ryy	8ddJ	8d	.
4.ryy	8ee-L	8e-L	.
.	8gg	8g	.
.	8bnJ	8BnJ	.
=236	=236	=236	=236
4.ryy	8ccL	8cL<	.
.	8ee-	8e-	.
.	8gJ	8G<J	.
8A-L	8a-L	4.ryy	.
8c	8cc	.	.
8EnJ	8enJ	.	.
=237	=237	=237	=237
4F	8fL	4ryy	.
.	8ccc	.	.
8ryy	8eeJ	8e	.
4ryy	8ffL	8fL	.
.	8aa-	8a-	.
8ryy	8cc#J	8c#J	.
=238	=238	=238	=238
4.ryy	8ddL	8dL<	.
.	8ff	8f	.
.	8anJ	8An<J	.
8B-L	8b-L	4ryy	.
8d	8dd	.	.
8F#J	8f#J	8ryy	.
=239	=239	=239	=239
4G	8gL	4ryy	.
.	8ddd	.	.
8ryy	8ff#J	8f#	.
4ryy	8ggL	8gL	.
.	8bb-	8b-	.
8ryy	8ddJ	8dJ	.
=240	=240	=240	=240
2.ryy	8ee-L	8e-L	.
.	8gg	8g	.
.	8bnJ	8BnJ	.
.	8ccL	8cL<	.
.	8ee-	8e-	.
.	8gJ	8G<J	.
*	*v	*v	*
=241	=241	=241
8A-L	8a-L	.
8c	8cc	.
8EnJ	8enJ	.
8FL	8fL	.
8A-	8a-	.
8C#J	8c#J	.
=242	=242	=242
8DL<	8dL	.
8F	8f	.
8AA#J	8A#<J	.
8BBL<	8BL	.
8D	8d	.
8FF#J	8F#<J	.
=243	=243	=243
*^	*	*
8GL	8GGL	2.r	.
8B	8BB	.	.
8DJ	8DDJ	.	.
8E-L	8EE-L	.	.
8G	8GG	.	.
8BBJ	8BBBJ	.	.
=244	=244	=244	=244
8CL	8CCL	2.r	.
8E-	8EE-	.	.
8GGJ	8GGGJ	.	.
8AA-L	8AAA-L	.	.
8C	8CC	.	.
8FF#J	8FFF#J	.	.
=245	=245	=245	=245
8GGL	[2.GGG	4.ryy	p
8BB	.	.	.
8DJ	.	.	.
4.FFn	.	8G<L	.
.	.	8A<	.
.	.	8B<J	.
=246	=246	=246	=246
*	*^	*	*
8cL	2.GGG\]	4.EE-/	4.ryy	.
8G	.	.	.	.
8dJ	.	.	.	.
4.ryy	.	4.CC/	8e-L	.
.	.	.	8G<	.
.	.	.	8f#J	.
*	*v	*v	*	*
=247	=247	=247	=247
[2.G	8GGGL>	(>4.g	.
.	8BBB	.	.
.	8DDJ	.	.
.	8GGL>	4.fn	.
.	8AA	.	.
.	8BBJ	.	.
=248	=248	=248	=248
2.G]	8CL	4.e-	.
.	8GG	.	.
.	8DJ	.	.
.	8E-L	4.c)	.
.	8GG	.	.
.	8F#J	.	.
=249	=249	=249	=249
!	!LO:DY:rj	!	!
(4.G	[2.GGz	8r	.
.	.	8BL	.
.	.	8dJ	.
4.Fn	.	8gL	.
.	.	8a	.
.	.	8bJ	.
=250	=250	=250	=250
4.E-	2.GG]	8ccL>	.
.	.	8g	.
.	.	8ddJ	.
4.C)	.	8ee-L>	.
.	.	8g	.
.	.	8ff#J	.
*v	*v	*	*
=251	=251	=251
*	*^	*
8GGL	(4.gg	[2.gz	.
8BB	.	.	.
8DJ	.	.	.
8GL	4.ffn	.	.
8A	.	.	.
8BJ	.	.	.
=252	=252	=252	=252
8cL	4.ee-	2.g]	.
8G	.	.	.
8dJ	.	.	.
8e->L	4.cc	.	.
8G	.	.	.
8f#>J	.	.	.
*	*v	*v	*
=253	=253	=253
8g>	8b)	.
*	*clefF4	*clefF4
8r	8F#'L	.
8r	8G'J	.
4r	8A'L	.
.	8B'	.
8r	8c'J	.
*	*clefG2	*clefG2
=254	=254	=254
2.r	8d'L	.
.	8e'	.
.	8f#'J	.
.	8g'L	.
.	8a'	.
.	8b'J	.
=255	=255	=255
8G'L	8B'L	.
8F#'	8A'	.
8G'J	8B'J	.
8A'L	8c'L	.
8B'	8d'	.
8c'J	8e'J	.
*clefG2	*	*
=256	=256	=256
8d'L	8f#'L	.
8e'	8g'	.
8f#'J	8a'J	.
8g'L	8b'L	.
8a'	8cc'	.
8b'J	8dd'J	.
=257	=257	=257
8B'L	8d' 8g'L	.
8A'	8c' 8f#'	.
8B'J	8d' 8g'J	.
4r	8c' 8e' 8a'L	.
.	8d' 8fn' 8b'	.
8r	8e' 8g' 8cc'J	.
=258	=258	=258
2.r	8f' 8a' 8dd'L	.
.	8g' 8b' 8ee'	.
.	8a' 8cc' 8ff'J	.
.	8b' 8dd' 8gg'L	.
.	8cc' 8ee' 8aa'	.
.	8dd' 8ff' 8bb'J	.
*clefF4	*	*
=259	=259	=259
8E' 8G' 8c'L	[>2.cccTT/	ff
8D' 8F' 8B'	.	.
8E' 8G' 8c'J	.	.
8F' 8A' 8d>'L	.	.
8G' 8B' 8e>'	.	.
8A' 8c' 8f>'J	.	.
=260	=260	=260
*	*^	*
2.ryy	2.ccc_TTT	8B' 8d' 8g'L	.
.	.	8c' 8e' 8a'	.
.	.	8d 8f 8bJ	.
.	.	8e' 8g' 8cc'L	.
.	.	8f' 8a' 8dd'	.
.	.	8g' 8cc' 8ee'J	.
=261	=261	=261	=261
2.ryy	2.ccc_TTT	4a' 4cc' 4ff'	.
.	.	8g' 8cc' 8ee'	.
.	.	4a' 4cc' 4ff'	.
.	.	8g' 8cc' 8ee'	.
=262	=262	=262	=262
2.ryy	2.ccc_TTT	4f' 4cc' 4dd'	.
.	.	8r	.
.	.	4r	.
.	.	8r	.
=263	=263	=263	=263
2.ryy	2.ccc_TTT	4g' 4cc' 4ee'	p
.	.	8f' 8cc' 8dd'	.
.	.	4g' 4cc' 4ee'	.
.	.	8f' 8cc' 8dd'	.
=264	=264	=264	=264
2.ryy	2.ccc]TTT	4e' 4cc'	.
.	.	8r	.
.	.	4r	.
.	.	8r	.
.	16qbbLL	.	.
.	16qcccJJ	.	.
*clefG2	*	*	*
*	*v	*v	*
=265	=265	=265
[2.ccTT	4aa' 4ccc' 4fff'	.
.	8gg' 8ccc' 8eee'	.
.	4aa' 4ccc' 4fff'	.
.	8gg' 8ccc' 8eee'	.
=266	=266	=266
2.cc_TTT	4ff#' 4ccc' 4ddd#'	.
.	8r	.
.	4r	.
.	8r	.
=267	=267	=267
2.cc_TTT	4gg' 4ccc' 4eee'	.
.	8ff#' 8ccc' 8ddd#'	.
.	4gg' 4eee'	.
.	8ffn' 8ccc' 8dddn'	.
=268	=268	=268
2.cc]TTT	4ee' 4ccc'	.
.	8r	.
.	4r	.
.	8ccc	.
16qbLL	.	.
16qccJJ	.	.
=269	=269	=269
8aa'L	8ccc' 8fff'L	.
8ff#'	8aa' 8ddd#'	.
8gg'J	8bb' 8eee'J	.
8ee'L	8gg' 8ccc#'L	.
8ffn'	8aa 8dddn	.
8dd'J	8ff' 8bb'J	.
=270	=270	=270
8ee'L	8gg' 8ccc'L	.
8cc#'	8ee' 8aa#'	.
8dd'J	8ff' 8bb'J	.
8b'L	8dd' 8gg#'L	.
8ccn'	8ee' 8aan'	.
8a'J	8cc' 8ff#'J	.
=271	=271	=271
8b'L	8dd' 8gg'L	.
8g#'	8b' 8ee'	.
8a'J	8cc' 8ffn'J	.
8f#'L	8a' 8dd#'L	.
8gn'	8b' 8ee'	.
8e'J	8g' 8cc#'J	.
=272	=272	=272
8fn'L	8a' 8dd'L	.
8d'	8f' 8b'	.
8e'J	8g' 8cc'J	.
8c#'L	8e' 8a#'L	.
8d'	8f' 8b'	.
8B'J	8d' 8g#'J	.
=273	=273	=273
8cn'L	8e' 8a'L	.
8B'	8d' 8b'	.
8A'J	8c' 8cc'J	.
8d'L	8f' 8b'L	.
8c'	8e' 8cc'	.
8B'J	8d' 8dd'J	.
=274	=274	=274
8e'L	8gn' 8cc'L	.
8d'	8f' 8dd'	.
8c'J	8e' 8ee'J	.
8f'L	8a' 8dd'L	.
8e'	8g' 8ee'	.
8d'J	8f' 8ff'J	.
=275	=275	=275
8g'L	8b' 8ee'L	.
8f'	8a' 8ff'	.
8e'J	8g' 8gg'J	.
8a'L	8cc' 8ff'L	.
8g'	8b' 8gg'	.
8f'J	8a' 8aa'J	.
=276	=276	=276
8b'L	8dd' 8gg'L	.
8a'	8cc' 8aa'	.
8g'J	8b' 8bb'J	.
8cc'L	8ee' 8aa'L	.
8b'	8dd' 8bb'	.
8a'J	8cc' 8ccc'J	.
=277	=277	=277
8dd'L	8ff' 8bb'L	.
8cc'	8ee' 8ccc'	.
8b'J	8dd' 8ddd'J	.
8ee'L	8gg' 8ccc'L	.
8dd'	8ff' 8ddd'	.
8cc'J	8ee' 8eee'J	.
=278	=278	=278
8ee'L	8gg' 8ccc'L	.
8dd'	8ff' 8ddd'	.
8cc'J	8ee' 8eee'J	.
8ee'L	8gg' 8ccc'L	.
8dd'	8ff' 8ddd'	.
8cc'J	8ee' 8eee'J	.
=279	=279	=279
4f'' 4a'' 4cc''	4dd'' 4aa'' 4ccc'' 4ddd''	ff
8r	8r	.
4r	4r	.
8r	8r	.
=280	=280	=280
4f#'' 4a'' 4cc''	4ee-'' 4ff#'' 4aa'' 4ccc'' 4eee-''	ff
8r	8r	.
4r	4r	.
8r	8r	.
=281	=281	=281
4G'' 4c'' 4e'' 4g''	4een'' 4gg'' 4ccc'' 4eeen''	ff
8r	(24gLL	.
.	24a	.
.	24bJJ)	.
4r	8cc'L	.
.	8dd'	.
8r	8ee'J	.
=282	=282	=282
2.r	8ff'L	.
.	8gg'	.
.	8aa'J	.
.	8bb'L	.
.	8ccc'	.
.	8ddd'J	.
=283	=283	=283
2.r	(8eeeL	p
.	8fff)	.
.	8ddd'J	.
.	(8eeeL	.
.	8fff)	.
.	8ddd'J	.
=284	=284	=284
2.r	(8eeeL	.
.	8fff)	.
.	8ddd'J	.
.	(8eeeL	.
.	8fff)	.
.	8ddd'J	.
=285	=285	=285
.	ccc#8q	.
4r	[2.dddTT	.
!	!	!LO:DY:b=2:rj
(32GLLL	.	ff
32A	.	.
32B	.	.
32cJJJ)	.	.
8d'z>L	.	.
8e'	.	.
8f#'J	.	.
=286	=286	=286
8g'L	2.ddd_TTT	.
8a'	.	.
8b'J	.	.
8cc'L	.	.
8dd'	.	.
8ee'J	.	.
=287	=287	=287
(8ffnL	2.ddd_TTT	p
8gg)	.	.
8ee'J	.	.
(8ffL	.	.
8gg)	.	.
8ee'J	.	.
=288	=288	=288
(8ffL	2.ddd_TTT	.
8gg)	.	.
8ee'J	.	.
(8ffL	.	.
8gg)	.	.
8ee'J	.	.
=289	=289	=289
[2.ffTT	2.ddd_TTT	.
=290	=290	=290
2.ff_TTT	2.ddd_TTT	.
=291	=291	=291
*	*^	*
2.ff_TTT	2.ddd_TTT	[2.bbtt	.
=292	=292	=292	=292
2.ff]TTT	2.ddd_TTT	2.bb]ttt	.
*	*v	*v	*
=293	=293	=293
2.r	2.ddd_TTT	.
=294	=294	=294
2.r	2.ddd]TTT	.
=295	=295	=295
2.r	[2.ddd#ttt	.
=296	=296	=296
2.r	2.ddd#]ttt	.
.	16qccc##LL	.
.	16qddd#JJ	.
=297	=297	=297
2.r;	2.r;	.
*clefF4	*	*
=298	=298	=298
!	!LO:TX:b:i:t=calando	!
8AAL	[2.ee [2.ccc# [2.eee	.
8GG#	.	.
8AAJ	.	.
8BBL	.	.
8C#	.	.
8DJ	.	.
=299	=299	=299
8EL	4.ee_ 4.ccc#_ 4.eee_	.
8F#	.	.
8G#J	.	.
8AL	8ee] 8ccc#] 8eeeL]	.
8B	8ee 8bb 8ddd	.
8c#J	8ee 8aa 8ccc#J	.
=300	=300	=300
4d	4ee 4gg# 4bb	.
8c#	8ee 8aa 8ccc#	.
4d	4ee 4gg# 4bb	.
8c#	8ee 8aa 8ccc#	.
=301	=301	=301
4d	4ee 4gg# 4bb	.
8r	8r	.
4r;	4r;	.
8r	8ee	.
=302	=302	=302
!!LO:TX:a:B:t=Rall.
8AL	[2.ee [2.cccn [2.eee	.
8G#	.	.
8AJ	.	.
8BL	.	.
8cn	.	.
8dJ	.	.
*clefG2	*	*
=303	=303	=303
8eL	4.ee_ 4.ccc_ 4.eee_	.
8f#	.	.
8g#J	.	.
8aL	8ee] 8ccc] 8eeeL]	.
8b	8ee 8bb 8ddd	.
8ccnJ	8ee 8aa 8cccJ	.
=304	=304	=304
4dd	4ffn 4gg 4bb	.
8ee	8gg 8ccc	.
4dd	4ff 4gg 4bb	.
8ee	8gg 8ccc	.
=305	=305	=305
4dd	4ff 4gg 4bb	.
8r	8r	.
4r;	4r;	.
8r	8gg	ff
*clefF4	*	*
=306	=306	=306
!!LO:TX:a:B:t=Tempo Io
!	!	!LO:DY:b=2:rj
8GGG 8GGL	[2.ff [2.gg [2.bb [2.ddd [2.fff	ff
8FFF# 8FF#	.	.
8GGG 8GGJ	.	.
8AAA 8AAL	.	.
8BBB 8BB	.	.
8CC 8CJ	.	.
=307	=307	=307
8DD 8DL	2.ff] 2.gg] 2.bb] 2.ddd] 2.fff]	.
8EE 8E	.	.
8FF 8FJ	.	.
8GG 8GL	.	.
8AA 8A	.	.
8BB 8BJ	.	.
=308	=308	=308
4C 4c	8ee 8gg 8ccc 8eeeL	ff
.	8dd 8ddd	.
8r	8cc 8cccJ	.
4r	8b 8bbL	.
.	8a 8aa	.
8r	8g 8ggJ	.
=309	=309	=309
2.r	8f 8ffL	.
.	8e 8ee	.
.	8d 8ddJ	.
.	8c 8ccL	.
.	8B 8b	.
.	8A 8aJ	.
=310	=310	=310
2.r	4G 4g	.
.	8r	.
.	4r	.
.	8r	.
=311	=311	=311
*^	*	*
4D 4F 4G 4B	4GGG 4GG	4ryy	.
8rGG	8ryy	8r	.
4rGG	4ryy	4r	.
8rGG	8ryy	8r	.
=312	=312	=312	=312
4E 4G 4c	4CC 4C	4r	.
8r	8r	8r	.
4r;	4r	4r;	.
8r	8r	8r	.
*v	*v	*	*
==	==	==
*-	*-	*-
!!!RDF**kern: < = below
!!!RDF**kern: > = above
!!!verovio: beamFrenchStyle 1
!!!LOR: Durand 1915, plates 9327/9328, Paul Dukas, ed.
!!!URL-vhv: https://verovio.humdrum.org/?file=beethoven/sonatas/sonata03-4.krn
!!!URL-pdf: https://github.com/craigsapp/beethoven-piano-sonatas/blob/master/reference-edition/sonata03-4.pdf
!!!ENC: Craig Stuart Sapp
!!!END: 2008/01/25
!!!EED: Craig Stuart Sapp
!!!EEV: 2019/08/22
